src/logos/156-arcadia.svg

<svg width="256" height="256" viewBox="0 0 256 256" fill="none" xmlns="http://www.w3.org/2000/svg">
    <rect width="256" height="256" fill="#213826"/>
    <path d="M90.6505 198H101.057L141.976 99.8272L182.908 198H207.378L149.014 58L90.6505 198Z" fill="#F5F5F5"/>
    <path d="M133.386 70.475L128.202 58L115.954 87.3396L69.8383 198H80.2321L121.164 99.8272L133.386 70.475Z" fill="#F5F5F5"/>
    <path d="M112.561 70.475L107.376 58L95.1285 87.3396L49 198H59.4063L100.338 99.8272L112.561 70.475Z" fill="#F5F5F5"/>
</svg>

<svg xmlns="http://www.w3.org/2000/svg" width="256" height="256" fill="none"><path fill="#213826" d="M0 0h256v256H0z"/><path fill="#F5F5F5" d="M90.65 198h10.407l40.919-98.173L182.908 198h24.47L149.014 58 90.65 198ZM133.386 70.475 128.202 58l-12.248 29.34L69.838 198h10.394l40.932-98.173 12.222-29.352ZM112.561 70.475 107.376 58 95.128 87.34 49 198h10.406l40.932-98.173 12.223-29.352Z"/></svg>
